X:149
T: HIER KOMMEN WIR HER VOR DIESES HAUS
N: E1253
O: Europa, Mitteleuropa, Deutschland, Ober- Bergisches Land, Gunnersbach
N: Schluss modulierend
R: Ansinge -, Brauchtums - Lied, Kirchen - Fest, Pfingsten
M: 2/4
L: 1/8
K: G
D | GGGG | BGG2 |
B2BB | dcB
B | dcBA | BAG2 |
A2AA | GAB2 |
cBAG | FEE

@@@ Tune index: 4833
